X:577
T: Yitiao xizai lililiu
N: C1998
O: China,Fujian Zhaoan
S: II, 574]
R: Shange, Fangniu ge]
M: 2/4
L: 1/16
K: Bb
c4f4 | d8 |
c2d2c2B2 | G2z2d4 | c8- | c6G2 |
c2c2f2d6
f2f2c2d2- | d4z4 |
ff3f2d2 | f2d2f2d4c2 | (3B2c2B2G8
c2f2c2d2 | ddc2d4- | d4z4 |
d2c2d2cdd2d2 | f2fd-d6c2 | B2cBG8

@@@ Tune index: 7132
